; generated by PrusaSlicer 2.9.6 on 2026-07-13 at 16:18:54 UTC

; 

; external perimeters extrusion width = 0.42mm
; perimeters extrusion width = 0.44mm
; infill extrusion width = 0.44mm
; solid infill extrusion width = 0.44mm
; top infill extrusion width = 0.40mm
; first layer extrusion width = 0.42mm

; external perimeters extrusion width = 0.42mm
; perimeters extrusion width = 0.44mm
; infill extrusion width = 0.44mm
; solid infill extrusion width = 0.44mm
; top infill extrusion width = 0.40mm
; first layer extrusion width = 0.42mm

M201 X500 Y500 Z100 E5000 ; sets maximum accelerations, mm/sec^2
M203 X500 Y500 Z10 E60 ; sets maximum feedrates, mm / sec
M204 S500 T1000 ; sets acceleration (S) and retract acceleration (R), mm/sec^2
M205 X8.00 Y8.00 Z0.40 E5.00 ; sets the jerk limits, mm/sec
M205 S0 T0 ; sets the minimum extruding and travel feed rate, mm/sec

; printing object EndstopPin(2).stl id:1 copy 0
; stop printing object EndstopPin(2).stl id:1 copy 0
; printing object EndstopPin(2).stl id:0 copy 0
; stop printing object EndstopPin(2).stl id:0 copy 0

;TYPE:Custom
G90 ; use absolute coordinates
M83 ; extruder relative mode
M104 S150 ; set temporary nozzle temp to prevent oozing during homing
M140 S60 ; set final bed temp
G4 S30 ; allow partial nozzle warmup
G28 ; home all axis
G1 Z50 F240
G1 X2.0 Y10 F3000
M104 S226 ; set final nozzle temp
M190 S60 ; wait for bed temp to stabilize
M109 S226 ; wait for nozzle temp to stabilize
G1 Z0.28 F240
G92 E0
G1 X2.0 Y140 E10 F1500 ; prime the nozzle
G1 X2.3 Y140 F5000
G92 E0
G1 X2.3 Y10 E10 F1200 ; prime the nozzle
G92 E0
G21 ; set units to millimeters
G90 ; use absolute coordinates
M83 ; use relative distances for extrusion
; Filament gcode
M107
;LAYER_CHANGE
;Z:0.2
;HEIGHT:0.2
G1 E-5 F3600
G1 Z.2 F9000
G1 X109.705 Y101.465
G1 E5 F2400
M204 S500
;TYPE:Skirt/Brim
;WIDTH:0.42
G1 F1200
G1 X110.789 Y100.309 E.04969
G1 X112.5 Y99.811 E.05587
G1 X118.648 Y99.815 E.19277
G1 X143.375 Y100.967 E.77614
G1 X144.89 Y101.432 E.04969
G1 X145.994 Y102.568 E.04967
G1 X146.415 Y104.152 E.05139
G1 X146.415 Y129.152 E.78386
G1 X146.022 Y130.687 E.04968
G1 X144.938 Y131.843 E.04969
G1 X143.227 Y132.34 E.05586
G1 X137.227 Y132.34 E.18813
G1 X112.352 Y131.185 E.78078
G1 X110.837 Y130.72 E.04969
G1 X109.733 Y129.584 E.04967
G1 X109.311 Y128 E.0514
G1 X109.311 Y103 E.78386
G1 X109.69 Y101.523 E.04781
G1 E-3.5 F3600
;WIPE_START
G1 F7200
G1 X109.705 Y101.465 E-.02846
G1 X110.789 Y100.309 E-.75275
G1 X112.242 Y99.886 E-.71879
;WIPE_END
; printing object EndstopPin(2).stl id:0 copy 0
G1 X114.023 Y104.878 F9000
G1 E5 F2400
;TYPE:External perimeter
;WIDTH:0.419999
G1 F1200
G1 X114.039 Y104.852 E.00096
G1 X114.432 Y104.479 E.01699
G1 X114.841 Y104.263 E.0145
G1 X115.37 Y104.147 E.01698
G1 X115.821 Y104.169 E.01416
G1 X116.207 Y104.28 E.01259
G1 X116.567 Y104.479 E.0129
G1 X116.96 Y104.851 E.01697
G1 X117.196 Y105.238 E.01421
G1 X117.32 Y105.62 E.01259
G1 X117.359 Y106.02 E.0126
G1 X117.311 Y106.419 E.0126
G1 X117.177 Y106.798 E.0126
G1 X116.87 Y107.255 E.01726
G1 X116.526 Y107.55 E.01421
G1 X116.169 Y107.735 E.01261
G1 X115.771 Y107.838 E.01289
G1 X115.23 Y107.838 E.01696
G1 X114.793 Y107.72 E.01419
G1 X114.44 Y107.527 E.01261
G1 X114.136 Y107.264 E.0126
G1 X113.897 Y106.941 E.0126
G1 X113.733 Y106.574 E.0126
G1 X113.642 Y106.031 E.01726
G1 X113.689 Y105.58 E.01422
G1 X113.821 Y105.201 E.01258
G1 X113.991 Y104.928 E.01008
G1 E-3.5 F3600
;WIPE_START
G1 F7200
G1 X114.023 Y104.878 E-.0282
G1 X114.039 Y104.852 E-.0145
G1 X114.432 Y104.479 E-.25737
G1 X114.841 Y104.263 E-.2197
G1 X115.37 Y104.147 E-.25725
G1 X115.821 Y104.169 E-.21448
G1 X116.207 Y104.28 E-.19078
G1 X116.567 Y104.479 E-.19539
G1 X116.754 Y104.656 E-.12233
;WIPE_END
G1 X115.4 Y123.148 F9000
G1 E5 F2400
G1 F1200
G1 X115.821 Y123.169 E.01322
G1 X116.215 Y123.285 E.01288
G1 X116.679 Y123.564 E.01698
G1 X116.992 Y123.891 E.01419
G1 X117.196 Y124.238 E.01262
G1 X117.32 Y124.62 E.01259
G1 X117.359 Y125.02 E.0126
G1 X117.311 Y125.419 E.0126
G1 X117.177 Y125.798 E.0126
G1 X116.87 Y126.254 E.01724
G1 X116.397 Y126.627 E.01889
G1 X115.978 Y126.797 E.01418
G1 X115.58 Y126.858 E.01262
G1 X115.179 Y126.831 E.0126
G1 X114.793 Y126.72 E.01259
G1 X114.44 Y126.527 E.01261
G1 X114.136 Y126.264 E.0126
G1 X113.897 Y125.941 E.0126
G1 X113.733 Y125.574 E.0126
G1 X113.642 Y125.031 E.01726
G1 X113.689 Y124.58 E.01422
G1 X113.827 Y124.193 E.01288
G1 X114.13 Y123.745 E.01696
G1 X114.474 Y123.45 E.01421
G1 X114.84 Y123.263 E.01289
G1 X115.34 Y123.153 E.01605
G1 E-3.5 F3600
;WIPE_START
G1 F7200
G1 X115.4 Y123.148 E-.0286
G1 X115.821 Y123.169 E-.20022
G1 X116.215 Y123.285 E-.19509
G1 X116.679 Y123.564 E-.25718
G1 X116.992 Y123.891 E-.21501
G1 X117.196 Y124.238 E-.1912
G1 X117.32 Y124.62 E-.19077
G1 X117.359 Y125.02 E-.1909
G1 X117.351 Y125.085 E-.03103
;WIPE_END
G1 X113.646 Y126.832 F9000
G1 E5 F2400
;TYPE:Perimeter
;WIDTH:0.523474
G1 F1200
G1 X113.586 Y126.832 E.0024
G1 X113.556 Y126.884 E.0024
G1 X113.586 Y126.936 E.0024
G1 X113.646 Y126.936 E.0024
G1 X113.676 Y126.884 E.0024
G1 X113.88 Y126.534 F9000
;WIDTH:0.419999
G1 F1200
G1 X113.905 Y126.567 E.0013
G1 X114.297 Y126.883 E.01579
;WIDTH:0.460132
G1 X114.552 Y127.007 E.00984
;WIDTH:0.500265
G1 X114.807 Y127.13 E.01077
;WIDTH:0.540398
G1 X115.062 Y127.253 E.01171
G1 X114.892 Y127.273 E.00708
;WIDTH:0.500265
G1 X114.722 Y127.293 E.00651
;WIDTH:0.460132
G1 X114.552 Y127.313 E.00594
;WIDTH:0.419999
G1 X113.187 Y127.313 E.0428
G1 X113.187 Y126.181 E.03549
;WIDTH:0.464102
G1 X113.209 Y126.05 E.00465
;WIDTH:0.508205
G1 X113.231 Y125.918 E.00518
;WIDTH:0.552308
G1 X113.253 Y125.787 E.00563
;WIDTH:0.59641
G1 X113.275 Y125.655 E.00616
G1 X113.345 Y125.767 E.00608
;WIDTH:0.552308
G1 X113.415 Y125.878 E.00556
;WIDTH:0.508205
G1 X113.485 Y125.989 E.00508
;WIDTH:0.464102
G1 X113.555 Y126.1 E.0046
;WIDTH:0.419999
G1 X113.844 Y126.486 E.01512
G1 X113.275 Y125.655 F9000
;WIDTH:0.59641
G1 F1200
G1 X113.252 Y125.378 E.01279
;WIDTH:0.550176
G1 X113.229 Y125.101 E.01172
;WIDTH:0.53832
G1 X113.246 Y124.573 E.02176
G1 E-3.5 F3600
;WIPE_START
G1 F7200
G1 X113.229 Y125.101 E-.25093
G1 X113.252 Y125.378 E-.13203
G1 X113.275 Y125.655 E-.13203
;WIPE_END
G1 E-.98501 F3600
G1 X117.414 Y126.832 F9000
G1 E5 F2400
;WIDTH:0.523564
G1 F1200
G1 X117.354 Y126.832 E.0024
G1 X117.324 Y126.884 E.0024
G1 X117.354 Y126.936 E.0024
G1 X117.414 Y126.936 E.0024
G1 X117.444 Y126.884 E.0024
G1 X117.11 Y126.526 F9000
;WIDTH:0.419999
G1 F1200
G1 X117.183 Y126.465 E.00298
G1 X117.49 Y126.009 E.01724
;WIDTH:0.461362
G1 X117.577 Y125.829 E.00696
;WIDTH:0.502724
G1 X117.664 Y125.648 E.00768
;WIDTH:0.544086
G1 X117.751 Y125.468 E.00833
G1 X117.772 Y125.617 E.00627
;WIDTH:0.502724
G1 X117.792 Y125.766 E.00575
;WIDTH:0.461362
G1 X117.813 Y125.915 E.00524
;WIDTH:0.419999
G1 X117.813 Y127.313 E.04383
G1 X116.756 Y127.313 E.03314
;WIDTH:0.468702
G1 X116.523 Y127.289 E.00829
;WIDTH:0.517405
G1 X116.29 Y127.264 E.00925
;WIDTH:0.566108
G1 X116.058 Y127.24 E.01015
G1 X116.175 Y127.181 E.0057
;WIDTH:0.517093
G1 X116.4 Y127.054 E.01019
;WIDTH:0.468546
G1 X116.625 Y126.927 E.00914
;WIDTH:0.419999
G1 X117.064 Y126.564 E.01786
G1 X116.058 Y127.24 F9000
;WIDTH:0.566108
G1 F1200
G1 X115.808 Y127.257 E.0109
;WIDTH:0.532506
G1 X115.558 Y127.273 E.0102
;WIDTH:0.540398
G1 X115.062 Y127.253 E.02053
G1 E-3.5 F3600
;WIPE_START
G1 F7200
G1 X115.558 Y127.273 E-.23579
G1 X115.808 Y127.257 E-.11899
G1 X116.058 Y127.24 E-.11902
;WIPE_END
G1 E-1.0262 F3600
G1 X117.754 Y124.573 F9000
G1 E5 F2400
;WIDTH:0.538312
G1 F1200
G1 X117.754 Y125.427 E.03518
;WIDTH:0.544086
G1 X117.751 Y125.468 E.00171
G1 E-3.5 F3600
;WIPE_START
G1 F7200
G1 X117.754 Y125.427 E-.01953
G1 X117.754 Y124.573 E-.40565
;WIPE_END
G1 E-1.07482 F3600
G1 X117.754 Y105.573 F9000
G1 E5 F2400
;WIDTH:0.538312
G1 F1200
G1 X117.754 Y106.427 E.03518
;WIDTH:0.544086
G1 X117.751 Y106.468 E.00171
G1 E-3.5 F3600
;WIPE_START
G1 F7200
G1 X117.754 Y106.427 E-.01953
G1 X117.754 Y105.573 E-.40565
;WIPE_END
G1 E-1.07482 F3600
G1 X117.407 Y104.07 F9000
G1 E5 F2400
;WIDTH:0.5396
G1 F1200
G1 X117.345 Y104.07 E.00256
G1 X117.314 Y104.124 E.00257
G1 X117.345 Y104.178 E.00257
G1 X117.407 Y104.178 E.00256
G1 X117.438 Y104.124 E.00257
G1 X117.107 Y104.477 F9000
;WIDTH:0.419999
G1 F1200
G1 X116.703 Y104.116 E.01699
;WIDTH:0.460133
G1 X116.448 Y103.993 E.00982
;WIDTH:0.500267
G1 X116.193 Y103.87 E.01077
;WIDTH:0.5404
G1 X115.938 Y103.747 E.01171
G1 X116.108 Y103.727 E.00708
;WIDTH:0.500267
G1 X116.278 Y103.707 E.00651
;WIDTH:0.460133
G1 X116.448 Y103.687 E.00594
;WIDTH:0.419999
G1 X117.813 Y103.687 E.0428
G1 X117.813 Y105.075 E.04352
;WIDTH:0.459437
G1 X117.793 Y105.241 E.00579
;WIDTH:0.498875
G1 X117.773 Y105.407 E.00634
;WIDTH:0.538312
G1 X117.754 Y105.573 E.00688
G1 X117.67 Y105.384 E.00852
;WIDTH:0.498875
G1 X117.586 Y105.195 E.00784
;WIDTH:0.459437
G1 X117.502 Y105.006 E.00716
;WIDTH:0.419999
G1 X117.22 Y104.578 E.01607
G1 X117.152 Y104.517 E.00286
G1 E-3.5 F3600
;WIPE_START
G1 F7200
G1 X117.107 Y104.477 E-.0286
G1 X116.703 Y104.116 E-.25735
G1 X116.448 Y103.993 E-.13448
G1 X116.193 Y103.87 E-.13448
G1 X115.938 Y103.747 E-.13448
G1 X116.108 Y103.727 E-.08131
G1 X116.278 Y103.707 E-.08131
G1 X116.448 Y103.687 E-.08131
G1 X117.641 Y103.687 E-.56668
;WIPE_END
G1 X115.305 Y103.731 F9000
G1 E5 F2400
;WIDTH:0.5404
G1 F1200
G1 X115.938 Y103.747 E.02619
G1 E-3.5 F3600
;WIPE_START
G1 F7200
G1 X115.305 Y103.731 E-.30077
;WIPE_END
G1 E-1.19923 F3600
G1 X113.655 Y104.07 F9000
G1 E5 F2400
;WIDTH:0.539634
G1 F1200
G1 X113.593 Y104.07 E.00256
G1 X113.562 Y104.124 E.00257
G1 X113.593 Y104.178 E.00257
G1 X113.655 Y104.178 E.00256
G1 X113.686 Y104.124 E.00257
G1 X113.889 Y104.474 F9000
;WIDTH:0.419999
G1 F1200
G1 X113.78 Y104.578 E.00472
G1 X113.498 Y105.006 E.01607
;WIDTH:0.45944
G1 X113.414 Y105.195 E.00716
;WIDTH:0.49888
G1 X113.33 Y105.384 E.00784
;WIDTH:0.53832
G1 X113.246 Y105.573 E.00852
G1 X113.227 Y105.407 E.00688
;WIDTH:0.49888
G1 X113.207 Y105.241 E.00634
;WIDTH:0.45944
G1 X113.187 Y105.075 E.00579
;WIDTH:0.419999
G1 X113.187 Y103.687 E.04352
G1 X114.737 Y103.687 E.0486
;WIDTH:0.463607
G1 X115.009 Y103.713 E.00956
;WIDTH:0.507214
G1 X115.28 Y103.739 E.01051
;WIDTH:0.501499
G1 X114.948 Y103.843 E.01327
;WIDTH:0.460749
G1 X114.616 Y103.947 E.01209
;WIDTH:0.419999
G1 X114.173 Y104.206 E.01609
G1 X113.933 Y104.433 E.01036
G1 E-3.5 F3600
;WIPE_START
G1 F7200
G1 X113.889 Y104.474 E-.02857
G1 X113.78 Y104.578 E-.07156
G1 X113.498 Y105.006 E-.24346
G1 X113.414 Y105.195 E-.09824
G1 X113.33 Y105.384 E-.09824
G1 X113.246 Y105.573 E-.09824
G1 X113.227 Y105.407 E-.07936
G1 X113.207 Y105.241 E-.07942
G1 X113.187 Y105.075 E-.07942
G1 X113.187 Y103.762 E-.62349
;WIPE_END
G1 X117.281 Y107.886 F9000
G1 E5 F2400
G1 F1200
G1 X117.436 Y107.743 E.00661
G1 X117.436 Y123.256 E.4864
G1 X117.068 Y122.918 E.01567
G1 X116.37 Y122.538 E.02492
G1 X115.822 Y122.409 E.01765
G1 X115.207 Y122.41 E.01928
G1 X114.439 Y122.614 E.02492
G1 X113.952 Y122.898 E.01768
G1 X113.564 Y123.257 E.01657
G1 X113.564 Y107.75 E.48621
G1 X113.952 Y108.102 E.01643
G1 X114.44 Y108.386 E.0177
G1 X114.977 Y108.558 E.01768
G1 X115.499 Y108.592 E.0164
G1 X116.023 Y108.558 E.01646
G1 X116.56 Y108.386 E.01768
G1 X117.048 Y108.102 E.0177
G1 X117.237 Y107.927 E.00808
G1 X117.751 Y106.468 F9000
;WIDTH:0.544086
G1 F1200
G1 X117.772 Y106.617 E.00627
;WIDTH:0.502724
G1 X117.792 Y106.766 E.00575
;WIDTH:0.461362
G1 X117.813 Y106.915 E.00524
;WIDTH:0.419999
G1 X117.813 Y124.075 E.53804
;WIDTH:0.459437
G1 X117.793 Y124.241 E.00579
;WIDTH:0.498875
G1 X117.773 Y124.407 E.00634
;WIDTH:0.538312
G1 X117.754 Y124.573 E.00688
G1 X117.687 Y124.421 E.00684
;WIDTH:0.498875
G1 X117.62 Y124.269 E.0063
;WIDTH:0.459437
G1 X117.553 Y124.117 E.00575
;WIDTH:0.419999
G1 X117.241 Y123.599 E.01896
G1 X116.874 Y123.241 E.01608
G1 X116.27 Y122.902 E.02172
G1 X115.801 Y122.786 E.01515
G1 X115.288 Y122.778 E.01609
G1 X114.616 Y122.948 E.02173
G1 X114.196 Y123.185 E.01512
G1 X113.818 Y123.533 E.01611
G1 X113.514 Y123.981 E.01698
;WIDTH:0.45944
G1 X113.425 Y124.179 E.00752
;WIDTH:0.49888
G1 X113.336 Y124.376 E.0082
;WIDTH:0.53832
G1 X113.246 Y124.573 E.00892
G1 X113.227 Y124.407 E.00688
;WIDTH:0.49888
G1 X113.207 Y124.241 E.00634
;WIDTH:0.45944
G1 X113.187 Y124.075 E.00579
;WIDTH:0.419999
G1 X113.187 Y107.181 E.5297
;WIDTH:0.464102
G1 X113.209 Y107.05 E.00465
;WIDTH:0.508205
G1 X113.231 Y106.918 E.00518
;WIDTH:0.552308
G1 X113.253 Y106.787 E.00563
;WIDTH:0.59641
G1 X113.275 Y106.655 E.00616
G1 X113.318 Y106.728 E.0039
;WIDTH:0.557673
G1 X113.361 Y106.802 E.00366
;WIDTH:0.518935
G1 X113.599 Y107.147 E.01659
;WIDTH:0.469467
G1 X113.836 Y107.492 E.01485
;WIDTH:0.419999
G1 X114.196 Y107.815 E.01516
G1 X114.73 Y108.098 E.01895
G1 X115.23 Y108.215 E.0161
G1 X115.771 Y108.215 E.01696
G1 X116.27 Y108.098 E.01607
G1 X116.804 Y107.815 E.01895
G1 X117.183 Y107.465 E.01618
G1 X117.49 Y107.009 E.01724
;WIDTH:0.461362
G1 X117.577 Y106.829 E.00696
;WIDTH:0.502724
G1 X117.664 Y106.648 E.00768
;WIDTH:0.544086
G1 X117.725 Y106.522 E.00583
G1 E-3.5 F3600
;WIPE_START
G1 F7200
G1 X117.751 Y106.468 E-.02847
G1 X117.772 Y106.617 E-.07147
G1 X117.792 Y106.766 E-.07141
G1 X117.813 Y106.915 E-.07147
G1 X117.813 Y109.562 E-1.25718
;WIPE_END
G1 X113.275 Y106.655 F9000
G1 E5 F2400
;WIDTH:0.59641
G1 F1200
G1 X113.252 Y106.378 E.01279
;WIDTH:0.550176
G1 X113.229 Y106.101 E.01172
;WIDTH:0.53832
G1 X113.246 Y105.573 E.02176
G1 E-3.5 F3600
;WIPE_START
G1 F7200
G1 X113.229 Y106.101 E-.25093
G1 X113.252 Y106.378 E-.13203
G1 X113.275 Y106.655 E-.13203
;WIPE_END
G1 E-.98501 F3600
G1 X112.81 Y103.31 F9000
G1 E5 F2400
;TYPE:External perimeter
;WIDTH:0.419999
G1 F1200
G1 X118.19 Y103.31 E.16869
G1 X118.19 Y127.69 E.76442
G1 X112.81 Y127.69 E.16869
G1 X112.81 Y103.37 E.76254
G1 E-3.5 F3600
;WIPE_START
G1 F7200
G1 X112.81 Y103.31 E-.0285
G1 X115.908 Y103.31 E-1.4715
;WIPE_END
G1 X116.863 Y108.362 F9000
G1 E5 F2400
;TYPE:Solid infill
;WIDTH:0.430723
G1 F1200
G1 X117.145 Y108.645 E.01288
G1 X117.145 Y109.193 E.01767
G1 X116.624 Y108.672 E.02376
G1 X116.211 Y108.807 E.01401
G1 X117.145 Y109.742 E.04262
G1 X117.145 Y110.29 E.01767
G1 X115.738 Y108.883 E.06416
G1 X115.184 Y108.878 E.01786
G1 X117.145 Y110.839 E.08943
G1 X117.145 Y111.387 E.01767
G1 X114.466 Y108.708 E.12217
G1 X114.309 Y108.645 E.00546
G1 X113.978 Y108.47 E.01207
G1 X113.855 Y108.38 E.00491
G1 X113.855 Y108.644 E.00851
G1 X117.145 Y111.935 E.15006
G1 X117.145 Y112.484 E.0177
G1 X113.855 Y109.193 E.15006
G1 X113.855 Y109.741 E.01767
G1 X117.145 Y113.032 E.15006
G1 X117.145 Y113.581 E.0177
G1 X113.855 Y110.29 E.15006
G1 X113.855 Y110.838 E.01767
G1 X117.145 Y114.129 E.15006
G1 X117.145 Y114.678 E.0177
G1 X113.855 Y111.387 E.15006
G1 X113.855 Y111.935 E.01767
G1 X117.145 Y115.226 E.15006
G1 X117.145 Y115.774 E.01767
G1 X113.855 Y112.483 E.15006
G1 X113.855 Y113.032 E.0177
G1 X117.145 Y116.323 E.15006
G1 X117.145 Y116.871 E.01767
G1 X113.855 Y113.58 E.15006
G1 X113.855 Y114.129 E.0177
G1 X117.145 Y117.42 E.15006
G1 X117.145 Y117.968 E.01767
G1 X113.855 Y114.677 E.15006
G1 X113.855 Y115.226 E.0177
G1 X117.145 Y118.517 E.15006
G1 X117.145 Y119.065 E.01767
G1 X113.855 Y115.774 E.15006
G1 X113.855 Y116.323 E.0177
G1 X117.145 Y119.614 E.15006
G1 X117.145 Y120.162 E.01767
G1 X113.855 Y116.871 E.15006
G1 X113.855 Y117.419 E.01767
G1 X117.145 Y120.71 E.15006
G1 X117.145 Y121.259 E.0177
G1 X113.855 Y117.968 E.15006
G1 X113.855 Y118.516 E.01767
G1 X117.145 Y121.807 E.15006
G1 X117.145 Y122.356 E.0177
G1 X113.855 Y119.065 E.15006
G1 X113.855 Y119.613 E.01767
G1 X116.538 Y122.296 E.12235
G1 X116.095 Y122.161 E.01493
G1 X115.811 Y122.118 E.00926
G1 X113.855 Y120.162 E.0892
G1 X113.855 Y120.71 E.01767
G1 X115.26 Y122.115 E.06407
G1 X114.799 Y122.203 E.01513
G1 X113.855 Y121.258 E.04307
G1 X113.855 Y121.807 E.0177
G1 X114.377 Y122.33 E.02383
G1 X114.012 Y122.512 E.01315
G1 X113.685 Y122.186 E.01489
G1 E-3.5 F3600
;WIPE_START
G1 F7200
G1 X114.012 Y122.512 E-.21933
G1 X114.377 Y122.33 E-.19373
G1 X113.855 Y121.807 E-.35099
G1 X113.855 Y121.258 E-.26078
G1 X114.562 Y121.966 E-.47517
;WIPE_END
