; generated by PrusaSlicer 2.9.6 on 2026-07-13 at 17:31:33 UTC

; 

; external perimeters extrusion width = 0.42mm
; perimeters extrusion width = 0.44mm
; infill extrusion width = 0.44mm
; solid infill extrusion width = 0.44mm
; top infill extrusion width = 0.40mm
; first layer extrusion width = 0.42mm

M201 X500 Y500 Z100 E5000 ; sets maximum accelerations, mm/sec^2
M203 X500 Y500 Z10 E60 ; sets maximum feedrates, mm / sec
M204 S500 T1000 ; sets acceleration (S) and retract acceleration (R), mm/sec^2
M205 X8.00 Y8.00 Z0.40 E5.00 ; sets the jerk limits, mm/sec
M205 S0 T0 ; sets the minimum extruding and travel feed rate, mm/sec

; printing object XenstopHitter.stl id:0 copy 0
; stop printing object XenstopHitter.stl id:0 copy 0

;TYPE:Custom
G90 ; use absolute coordinates
M83 ; extruder relative mode
M104 S150 ; set temporary nozzle temp to prevent oozing during homing
M140 S60 ; set final bed temp
G4 S30 ; allow partial nozzle warmup
G28 ; home all axis
G1 Z50 F240
G1 X2.0 Y10 F3000
M104 S226 ; set final nozzle temp
M190 S60 ; wait for bed temp to stabilize
M109 S226 ; wait for nozzle temp to stabilize
G1 Z0.28 F240
G92 E0
G1 X2.0 Y140 E10 F1500 ; prime the nozzle
G1 X2.3 Y140 F5000
G92 E0
G1 X2.3 Y10 E10 F1200 ; prime the nozzle
G92 E0
G21 ; set units to millimeters
G90 ; use absolute coordinates
M83 ; use relative distances for extrusion
; Filament gcode
M107
;LAYER_CHANGE
;Z:0.2
;HEIGHT:0.2
G1 E-5 F3600
G1 Z.2 F9000
G1 X88.789 Y107.809
G1 E5 F2400
M204 S500
;TYPE:Skirt/Brim
;WIDTH:0.42
G1 F1200
G1 X90.5 Y107.311 E.05587
G1 X140.5 Y107.311 E1.56771
G1 X142.035 Y107.705 E.04969
G1 X143.191 Y108.789 E.04969
G1 X143.689 Y110.5 E.05587
G1 X143.689 Y120.5 E.31354
G1 X143.295 Y122.035 E.04969
G1 X142.211 Y123.191 E.04969
G1 X140.5 Y123.689 E.05587
G1 X90.5 Y123.689 E1.56771
G1 X88.965 Y123.295 E.04969
G1 X87.809 Y122.211 E.04969
G1 X87.311 Y120.5 E.05587
G1 X87.311 Y110.5 E.31354
G1 X87.705 Y108.965 E.04969
G1 X88.748 Y107.853 E.0478
G1 E-3.5 F3600
;WIPE_START
G1 F7200
G1 X88.789 Y107.809 E-.02857
G1 X90.5 Y107.311 E-.84645
G1 X91.816 Y107.311 E-.62498
;WIPE_END
; printing object XenstopHitter.stl id:0 copy 0
G1 X121.167 Y112.7 F9000
G1 E5 F2400
;TYPE:External perimeter
;WIDTH:0.419999
G1 F1200
G1 X121.169 Y112.679 E.00066
G1 X121.28 Y112.293 E.01259
G1 X121.473 Y111.94 E.01261
G1 X121.777 Y111.606 E.01416
G1 X122.071 Y111.393 E.01138
;WIDTH:0.430135
G1 X122.574 Y111.196 E.01739
G1 X123.356 Y111.185 E.02518
;WIDTH:0.426462
G1 X123.928 Y111.393 E.01941
;WIDTH:0.419999
G1 X124.299 Y111.672 E.01455
G1 X124.627 Y112.103 E.01698
G1 X124.797 Y112.522 E.01418
G1 X124.858 Y112.92 E.01262
G1 X124.831 Y113.321 E.0126
G1 X124.72 Y113.707 E.01259
G1 X124.521 Y114.067 E.0129
G1 X124.148 Y114.46 E.01699
G1 X123.745 Y114.697 E.01466
;WIDTH:0.423682
G1 X123.223 Y114.828 E.01704
;WIDTH:0.429423
G1 X122.636 Y114.817 E.01887
G1 X122.073 Y114.608 E.0193
;WIDTH:0.419999
G1 X121.604 Y114.226 E.01897
G1 X121.348 Y113.853 E.01418
G1 X121.214 Y113.517 E.01134
G1 X121.142 Y113.08 E.01389
G1 X121.163 Y112.76 E.01005
G1 E-3.5 F3600
;WIPE_START
G1 F7200
G1 X121.167 Y112.7 E-.02856
G1 X121.169 Y112.679 E-.01002
G1 X121.28 Y112.293 E-.19078
G1 X121.473 Y111.94 E-.1911
G1 X121.777 Y111.606 E-.21453
G1 X122.071 Y111.393 E-.17245
G1 X122.574 Y111.196 E-.2566
G1 X123.356 Y111.185 E-.37149
G1 X123.484 Y111.231 E-.06447
;WIPE_END
G1 X109.854 Y112.899 F9000
G1 E5 F2400
G1 F1200
G1 X109.858 Y112.92 E.00067
G1 X109.831 Y113.321 E.0126
G1 X109.72 Y113.707 E.01259
G1 X109.526 Y114.059 E.0126
G1 X109.148 Y114.46 E.01728
G1 X108.745 Y114.697 E.01466
;WIDTH:0.423683
G1 X108.223 Y114.828 E.01704
;WIDTH:0.429425
G1 X107.636 Y114.817 E.01887
G1 X107.072 Y114.608 E.01933
;WIDTH:0.419999
G1 X106.604 Y114.226 E.01894
G1 X106.348 Y113.853 E.01418
G1 X106.203 Y113.478 E.01261
G1 X106.142 Y113.08 E.01262
G1 X106.169 Y112.679 E.0126
G1 X106.28 Y112.293 E.01259
G1 X106.473 Y111.94 E.01261
G1 X106.777 Y111.606 E.01416
G1 X107.071 Y111.393 E.01138
;WIDTH:0.430136
G1 X107.574 Y111.196 E.01739
;WIDTH:0.432275
G1 X108.356 Y111.183 E.02532
;WIDTH:0.42935
G1 X108.928 Y111.393 E.01958
;WIDTH:0.419999
G1 X109.299 Y111.672 E.01455
G1 X109.627 Y112.103 E.01698
G1 X109.797 Y112.522 E.01418
G1 X109.845 Y112.84 E.01008
G1 E-3.5 F3600
;WIPE_START
G1 F7200
G1 X109.854 Y112.899 E-.02835
G1 X109.858 Y112.92 E-.01015
G1 X109.831 Y113.321 E-.19091
G1 X109.72 Y113.707 E-.19078
G1 X109.526 Y114.059 E-.19091
G1 X109.148 Y114.46 E-.26176
G1 X108.745 Y114.697 E-.22207
G1 X108.223 Y114.828 E-.25564
G1 X107.909 Y114.822 E-.14943
;WIPE_END
G1 X125.159 Y111.557 F9000
G1 E5 F2400
;TYPE:Perimeter
G1 F1200
G1 X139.436 Y111.564 E.44764
G1 X139.436 Y119.436 E.24682
G1 X136.564 Y119.436 E.09005
G1 X136.564 Y115.379 E.1272
G1 X136.487 Y115.004 E.012
G1 X136.288 Y114.712 E.01108
G1 X135.996 Y114.513 E.01108
G1 X135.622 Y114.436 E.01197
G1 X125.176 Y114.436 E.32753
G1 X125.386 Y114.06 E.0135
G1 X125.558 Y113.523 E.01768
G1 X125.611 Y112.944 E.01823
G1 X125.541 Y112.4 E.0172
G1 X125.353 Y111.868 E.01769
G1 X125.191 Y111.608 E.00961
G1 X124.836 Y111.755 F9000
G1 F1200
G1 X124.599 Y111.443 E.01228
G1 X124.284 Y111.18 E.01287
G1 X139.813 Y111.187 E.4869
G1 X139.813 Y119.813 E.27046
G1 X136.187 Y119.813 E.11369
G1 X136.187 Y115.379 E.13902
G1 X136.141 Y115.154 E.0072
G1 X136.021 Y114.978 E.00668
G1 X135.846 Y114.859 E.00664
G1 X135.622 Y114.813 E.00717
G1 X124.3 Y114.816 E.35499
G1 X124.421 Y114.72 E.00484
G1 X124.794 Y114.327 E.01699
G1 X125.053 Y113.884 E.01609
G1 X125.195 Y113.422 E.01515
G1 X125.235 Y112.93 E.01548
G1 X125.136 Y112.343 E.01866
G1 X124.927 Y111.874 E.0161
G1 X124.872 Y111.803 E.00282
G1 E-3.5 F3600
;WIPE_START
G1 F7200
G1 X124.836 Y111.755 E-.0285
G1 X124.599 Y111.443 E-.18611
G1 X124.284 Y111.18 E-.19492
G1 X126.58 Y111.181 E-1.09047
;WIPE_END
G1 X105.822 Y111.564 F9000
G1 E5 F2400
G1 F1200
G1 X105.614 Y111.94 E.01347
G1 X105.442 Y112.477 E.01768
G1 X105.389 Y113.055 E.0182
G1 X105.459 Y113.6 E.01723
G1 X105.647 Y114.132 E.01769
G1 X105.827 Y114.436 E.01108
G1 X95.379 Y114.436 E.32759
G1 X95.004 Y114.513 E.012
G1 X94.712 Y114.712 E.01108
G1 X94.513 Y115.004 E.01108
G1 X94.436 Y115.379 E.012
G1 X94.436 Y119.436 E.1272
G1 X91.564 Y119.436 E.09005
G1 X91.564 Y111.564 E.24682
G1 X105.762 Y111.564 E.44517
G1 X106.155 Y111.749 F9000
G1 F1200
G1 X105.947 Y112.116 E.01323
G1 X105.805 Y112.578 E.01515
G1 X105.766 Y113.06 E.01516
G1 X105.831 Y113.539 E.01516
G1 X105.998 Y113.992 E.01514
G1 X106.258 Y114.4 E.01517
G1 X106.719 Y114.816 E.01947
G1 X95.297 Y114.813 E.35813
G1 X94.979 Y114.979 E.01125
G1 X94.859 Y115.154 E.00665
G1 X94.813 Y115.379 E.0072
G1 X94.813 Y119.813 E.13902
G1 X91.187 Y119.813 E.11369
G1 X91.187 Y111.187 E.27046
G1 X106.71 Y111.184 E.48671
G1 X106.542 Y111.311 E.0066
G1 X106.186 Y111.695 E.01642
G1 E-3.5 F3600
;WIPE_START
G1 F7200
G1 X106.155 Y111.749 E-.02958
G1 X105.947 Y112.116 E-.20038
G1 X105.805 Y112.578 E-.22958
G1 X105.766 Y113.06 E-.2297
G1 X105.831 Y113.539 E-.22961
G1 X105.998 Y113.992 E-.22933
G1 X106.258 Y114.4 E-.22981
G1 X106.449 Y114.572 E-.12201
;WIPE_END
G1 X110.165 Y111.564 F9000
G1 E5 F2400
G1 F1200
G1 X120.822 Y111.564 E.33414
G1 X120.614 Y111.94 E.01347
G1 X120.442 Y112.477 E.01768
G1 X120.389 Y113.055 E.0182
G1 X120.459 Y113.6 E.01723
G1 X120.647 Y114.132 E.01769
G1 X120.827 Y114.436 E.01108
G1 X110.175 Y114.436 E.33399
G1 X110.386 Y114.059 E.01355
G1 X110.558 Y113.523 E.01765
G1 X110.611 Y112.945 E.0182
G1 X110.541 Y112.4 E.01723
G1 X110.353 Y111.868 E.01769
G1 X110.196 Y111.615 E.00934
G1 E-3.5 F3600
;WIPE_START
G1 F7200
G1 X110.165 Y111.564 E-.02835
G1 X113.263 Y111.564 E-1.47165
;WIPE_END
G1 X120.781 Y112.88 F9000
G1 E5 F2400
G1 F1200
G1 X120.766 Y113.06 E.00566
G1 X120.831 Y113.539 E.01516
G1 X120.998 Y113.992 E.01514
G1 X121.258 Y114.4 E.01517
G1 X121.719 Y114.816 E.01947
G1 X109.3 Y114.816 E.38939
G1 X109.423 Y114.718 E.00493
G1 X109.8 Y114.318 E.01723
G1 X110.053 Y113.883 E.01578
G1 X110.195 Y113.422 E.01512
G1 X110.234 Y112.931 E.01544
G1 X110.136 Y112.343 E.01869
G1 X109.927 Y111.874 E.0161
G1 X109.599 Y111.443 E.01698
G1 X109.29 Y111.184 E.01264
G1 X121.71 Y111.184 E.38942
G1 X121.542 Y111.311 E.0066
G1 X121.186 Y111.695 E.01642
G1 X120.947 Y112.116 E.01518
G1 X120.805 Y112.578 E.01515
G1 X120.786 Y112.82 E.00761
G1 E-3.5 F3600
;WIPE_START
G1 F7200
G1 X120.781 Y112.88 E-.0286
G1 X120.766 Y113.06 E-.0858
G1 X120.831 Y113.539 E-.22961
G1 X120.998 Y113.992 E-.22933
G1 X121.258 Y114.4 E-.22981
G1 X121.719 Y114.816 E-.29495
G1 X120.873 Y114.816 E-.4019
;WIPE_END
G1 X135.762 Y115.263 F9000
G1 E5 F2400
;TYPE:External perimeter
G1 F1200
G1 X135.755 Y115.245 E.00061
G1 X135.622 Y115.19 E.00451
G1 X123.811 Y115.201 E.37033
;WIDTH:0.425544
G1 X123 Y115.211 E.0258
;WIDTH:0.426393
G1 X121.503 Y115.19 E.04774
;WIDTH:0.419999
G1 X108.811 Y115.201 E.39795
;WIDTH:0.425545
G1 X108 Y115.211 E.0258
;WIDTH:0.426394
G1 X106.503 Y115.19 E.04774
;WIDTH:0.419999
G1 X95.379 Y115.19 E.34878
G1 X95.245 Y115.245 E.00454
G1 X95.19 Y115.379 E.00454
G1 X95.19 Y120.19 E.15085
G1 X90.81 Y120.19 E.13733
G1 X90.81 Y110.81 E.2941
G1 X106.958 Y110.803 E.50631
;WIDTH:0.430136
G1 X107.498 Y110.799 E.01739
;WIDTH:0.432146
G1 X108.501 Y110.797 E.03246
;WIDTH:0.42614
G1 X109.497 Y110.81 E.03174
;WIDTH:0.419999
G1 X121.958 Y110.803 E.39071
;WIDTH:0.430135
G1 X122.498 Y110.799 E.01739
;WIDTH:0.432121
G1 X122.998 Y110.793 E.01618
;WIDTH:0.435182
G1 X124.037 Y110.802 E.03389
;WIDTH:0.419999
G1 X140.19 Y110.81 E.50647
G1 X140.19 Y120.19 E.2941
G1 X135.81 Y120.19 E.13733
G1 X135.81 Y115.379 E.15085
G1 X135.785 Y115.318 E.00207
G1 E-3.5 F3600
;WIPE_START
G1 F7200
G1 X135.762 Y115.263 E-.02832
G1 X135.755 Y115.245 E-.00917
G1 X135.622 Y115.19 E-.06836
G1 X132.687 Y115.193 E-1.39415
;WIPE_END
G1 X138.548 Y111.684 F9000
G1 E5 F2400
;TYPE:Solid infill
;WIDTH:0.422369
G1 F1200
G1 X139.146 Y112.282 E.02668
G1 X139.146 Y112.819 E.01694
G1 X138.18 Y111.853 E.0431
G1 X137.644 Y111.853 E.01691
G1 X139.146 Y113.355 E.06702
G1 X139.146 Y113.892 E.01694
G1 X137.107 Y111.853 E.09098
G1 X136.57 Y111.853 E.01694
G1 X139.146 Y114.428 E.11492
G1 X139.146 Y114.965 E.01694
G1 X136.033 Y111.852 E.1389
G1 X135.496 Y111.852 E.01694
G1 X139.146 Y115.502 E.16286
G1 X139.146 Y116.038 E.01691
G1 X134.959 Y111.852 E.1868
G1 X134.422 Y111.852 E.01694
G1 X139.146 Y116.575 E.21076
G1 X139.146 Y117.112 E.01694
G1 X133.885 Y111.851 E.23475
G1 X133.349 Y111.851 E.01691
G1 X135.646 Y114.148 E.10249
G1 X136.111 Y114.245 E.01499
G1 X136.494 Y114.505 E.01461
G1 X136.755 Y114.889 E.01465
G1 X136.852 Y115.354 E.01499
G1 X139.146 Y117.648 E.10236
G1 X139.146 Y118.185 E.01694
G1 X136.854 Y115.894 E.10225
G1 X136.854 Y116.43 E.01691
G1 X139.146 Y118.721 E.10225
G1 X139.146 Y119.146 E.01341
G1 X139.033 Y119.146 E.00357
G1 X136.854 Y116.967 E.09723
G1 X136.854 Y117.504 E.01694
G1 X138.496 Y119.146 E.07327
G1 X137.96 Y119.146 E.01691
G1 X136.854 Y118.04 E.04935
G1 X136.854 Y118.577 E.01694
G1 X137.423 Y119.146 E.02539
G1 X136.887 Y119.146 E.01691
G1 X136.685 Y118.944 E.00901
G1 E-3.5 F3600
;WIPE_START
G1 F7200
G1 X136.887 Y119.146 E-.13569
G1 X137.423 Y119.146 E-.2546
G1 X136.854 Y118.577 E-.38223
G1 X136.854 Y118.04 E-.25507
G1 X137.557 Y118.743 E-.47241
;WIPE_END
G1 X135.276 Y114.315 F9000
G1 E5 F2400
G1 F1200
G1 X132.812 Y111.851 E.10994
G1 X132.275 Y111.851 E.01694
G1 X134.57 Y114.146 E.1024
G1 X134.033 Y114.146 E.01694
G1 X131.738 Y111.85 E.10243
G1 X131.201 Y111.85 E.01694
G1 X133.496 Y114.146 E.10243
G1 X132.96 Y114.146 E.01691
G1 X130.664 Y111.85 E.10245
G1 X130.127 Y111.85 E.01694
G1 X132.423 Y114.146 E.10245
G1 X131.887 Y114.146 E.01691
G1 X129.591 Y111.85 E.10245
G1 X129.054 Y111.849 E.01694
G1 X131.35 Y114.146 E.10247
G1 X130.813 Y114.146 E.01694
G1 X128.517 Y111.849 E.10247
G1 X127.98 Y111.849 E.01694
G1 X130.277 Y114.146 E.10249
G1 X129.74 Y114.146 E.01694
G1 X127.443 Y111.849 E.10249
G1 X126.906 Y111.848 E.01694
G1 X129.203 Y114.146 E.10252
G1 X128.667 Y114.146 E.01691
G1 X126.369 Y111.848 E.10254
G1 X125.832 Y111.848 E.01694
G1 X128.13 Y114.146 E.10254
G1 X127.594 Y114.146 E.01691
G1 X125.833 Y112.385 E.07858
G1 X125.887 Y112.715 E.01055
G1 X125.9 Y112.988 E.00862
G1 X127.057 Y114.146 E.05165
G1 X126.52 Y114.146 E.01694
G1 X125.858 Y113.483 E.02956
G1 X125.751 Y113.913 E.01398
G1 X126.153 Y114.315 E.01794
G1 E-3.5 F3600
;WIPE_START
G1 F7200
G1 X125.751 Y113.913 E-.27004
G1 X125.858 Y113.483 E-.21048
G1 X126.52 Y114.146 E-.44504
G1 X127.057 Y114.146 E-.25508
G1 X126.582 Y113.671 E-.31936
;WIPE_END
G1 X120.386 Y112.228 F9000
G1 E5 F2400
;WIDTH:0.423969
G1 F1200
G1 X120.013 Y111.854 E.01674
G1 X119.474 Y111.854 E.01708
G1 X120.142 Y112.522 E.02993
G1 X120.1 Y113.019 E.0158
G1 X118.935 Y111.854 E.0522
G1 X118.396 Y111.854 E.01708
G1 X120.169 Y113.628 E.07947
G1 X120.242 Y113.899 E.00889
G1 X120.344 Y114.146 E.00847
G1 X120.148 Y114.146 E.00621
G1 X117.857 Y111.854 E.10268
G1 X117.318 Y111.854 E.01708
G1 X119.61 Y114.146 E.1027
G1 X119.071 Y114.146 E.01708
G1 X116.779 Y111.854 E.1027
G1 X116.241 Y111.854 E.01705
G1 X118.532 Y114.146 E.10268
G1 X117.993 Y114.146 E.01708
G1 X115.702 Y111.854 E.10268
G1 X115.163 Y111.854 E.01708
G1 X117.454 Y114.146 E.10268
G1 X116.915 Y114.146 E.01708
G1 X114.624 Y111.854 E.10268
G1 X114.085 Y111.854 E.01708
G1 X116.376 Y114.146 E.10268
G1 X115.837 Y114.146 E.01708
G1 X113.546 Y111.854 E.10268
G1 X113.007 Y111.854 E.01708
G1 X115.298 Y114.146 E.10268
G1 X114.76 Y114.146 E.01705
G1 X112.468 Y111.854 E.1027
G1 X111.929 Y111.854 E.01708
G1 X114.221 Y114.146 E.1027
G1 X113.682 Y114.146 E.01708
G1 X111.391 Y111.854 E.10268
G1 X110.852 Y111.854 E.01708
G1 X113.143 Y114.146 E.10268
G1 X112.604 Y114.146 E.01708
G1 X110.831 Y112.372 E.07947
G1 X110.887 Y112.715 E.01101
G1 X110.9 Y112.981 E.00844
G1 X112.065 Y114.146 E.0522
G1 X111.526 Y114.146 E.01708
G1 X110.858 Y113.478 E.02993
G1 X110.752 Y113.91 E.01409
G1 X111.157 Y114.315 E.01815
G1 E-3.5 F3600
;WIPE_START
G1 F7200
G1 X110.752 Y113.91 E-.27206
G1 X110.858 Y113.478 E-.21129
G1 X111.526 Y114.146 E-.44873
G1 X112.065 Y114.146 E-.25603
G1 X111.601 Y113.682 E-.31189
;WIPE_END
G1 X104.823 Y111.685 F9000
G1 E5 F2400
;WIDTH:0.425058
G1 F1200
G1 X105.244 Y112.106 E.01892
G1 X105.138 Y112.541 E.01423
G1 X104.452 Y111.854 E.03085
G1 X103.912 Y111.854 E.01716
G1 X105.099 Y113.041 E.05334
G1 X105.113 Y113.285 E.00777
G1 X105.175 Y113.658 E.01201
G1 X103.371 Y111.854 E.08107
G1 X102.831 Y111.854 E.01716
G1 X105.122 Y114.146 E.10297
G1 X104.582 Y114.146 E.01716
G1 X102.291 Y111.854 E.10297
G1 X101.75 Y111.854 E.01719
G1 X104.041 Y114.146 E.10297
G1 X103.501 Y114.146 E.01716
G1 X101.21 Y111.854 E.10297
G1 X100.669 Y111.854 E.01719
G1 X102.96 Y114.146 E.10297
G1 X102.42 Y114.146 E.01716
G1 X100.129 Y111.854 E.10297
G1 X99.588 Y111.854 E.01719
G1 X101.88 Y114.146 E.10299
G1 X101.339 Y114.146 E.01719
G1 X99.048 Y111.854 E.10297
G1 X98.508 Y111.854 E.01716
G1 X100.799 Y114.146 E.10297
G1 X100.258 Y114.146 E.01719
G1 X97.967 Y111.854 E.10297
G1 X97.427 Y111.854 E.01716
G1 X99.718 Y114.146 E.10297
G1 X99.177 Y114.146 E.01719
G1 X96.886 Y111.854 E.10297
G1 X96.346 Y111.854 E.01716
G1 X98.637 Y114.146 E.10297
G1 X98.097 Y114.146 E.01716
G1 X95.805 Y111.854 E.10299
G1 X95.265 Y111.854 E.01716
G1 X97.556 Y114.146 E.10297
G1 X97.016 Y114.146 E.01716
G1 X94.725 Y111.854 E.10297
G1 X94.184 Y111.854 E.01719
G1 X96.475 Y114.146 E.10297
G1 X95.935 Y114.146 E.01716
G1 X93.644 Y111.854 E.10297
G1 X93.103 Y111.854 E.01719
G1 X95.394 Y114.146 E.10297
G1 X95.164 Y114.164 E.00733
G1 X94.939 Y114.231 E.00746
G1 X92.563 Y111.854 E.10679
G1 X92.023 Y111.854 E.01716
G1 X94.605 Y114.437 E.11605
G1 X94.505 Y114.505 E.00384
G1 X94.355 Y114.727 E.00851
G1 X91.854 Y112.227 E.11236
G1 X91.854 Y112.767 E.01716
G1 X94.199 Y115.111 E.10535
G1 X94.146 Y115.368 E.00834
G1 X94.146 Y115.599 E.00734
G1 X91.854 Y113.308 E.10297
G1 X91.854 Y113.848 E.01716
G1 X94.146 Y116.139 E.10297
G1 X94.146 Y116.68 E.01719
G1 X91.854 Y114.389 E.10297
G1 X91.854 Y114.929 E.01716
G1 X94.146 Y117.22 E.10297
G1 X94.146 Y117.76 E.01716
G1 X91.854 Y115.469 E.10297
G1 X91.854 Y116.01 E.01719
