; generated by PrusaSlicer 2.9.6 on 2026-07-13 at 18:43:30 UTC

; 

; external perimeters extrusion width = 0.42mm
; perimeters extrusion width = 0.44mm
; infill extrusion width = 0.44mm
; solid infill extrusion width = 0.44mm
; top infill extrusion width = 0.40mm
; first layer extrusion width = 0.42mm

M201 X500 Y500 Z100 E5000 ; sets maximum accelerations, mm/sec^2
M203 X500 Y500 Z10 E60 ; sets maximum feedrates, mm / sec
M204 S500 T1000 ; sets acceleration (S) and retract acceleration (R), mm/sec^2
M205 X8.00 Y8.00 Z0.40 E5.00 ; sets the jerk limits, mm/sec
M205 S0 T0 ; sets the minimum extruding and travel feed rate, mm/sec

; printing object XenstopHitter(1).stl id:0 copy 0
; stop printing object XenstopHitter(1).stl id:0 copy 0

;TYPE:Custom
G90 ; use absolute coordinates
M83 ; extruder relative mode
M104 S150 ; set temporary nozzle temp to prevent oozing during homing
M140 S60 ; set final bed temp
G4 S30 ; allow partial nozzle warmup
G28 ; home all axis
G1 Z50 F240
G1 X2.0 Y10 F3000
M104 S226 ; set final nozzle temp
M190 S60 ; wait for bed temp to stabilize
M109 S226 ; wait for nozzle temp to stabilize
G1 Z0.28 F240
G92 E0
G1 X2.0 Y140 E10 F1500 ; prime the nozzle
G1 X2.3 Y140 F5000
G92 E0
G1 X2.3 Y10 E10 F1200 ; prime the nozzle
G92 E0
G21 ; set units to millimeters
G90 ; use absolute coordinates
M83 ; use relative distances for extrusion
; Filament gcode
M107
;LAYER_CHANGE
;Z:0.2
;HEIGHT:0.2
G1 E-5 F3600
G1 Z.2 F9000
G1 X78.789 Y107.809
G1 E5 F2400
M204 S500
;TYPE:Skirt/Brim
;WIDTH:0.42
G1 F1200
G1 X80.5 Y107.311 E.05587
G1 X150.5 Y107.311 E2.1948
G1 X152.035 Y107.705 E.04969
G1 X153.191 Y108.789 E.04969
G1 X153.689 Y110.5 E.05587
G1 X153.689 Y120.5 E.31354
G1 X153.295 Y122.035 E.04969
G1 X152.211 Y123.191 E.04969
G1 X150.5 Y123.689 E.05587
G1 X80.5 Y123.689 E2.1948
G1 X78.965 Y123.295 E.04969
G1 X77.809 Y122.211 E.04969
G1 X77.311 Y120.5 E.05587
G1 X77.311 Y110.5 E.31354
G1 X77.705 Y108.965 E.04969
G1 X78.748 Y107.853 E.0478
G1 E-3.5 F3600
;WIPE_START
G1 F7200
G1 X78.789 Y107.809 E-.02857
G1 X80.5 Y107.311 E-.84645
G1 X81.816 Y107.311 E-.62498
;WIPE_END
; printing object XenstopHitter(1).stl id:0 copy 0
G1 X121.167 Y112.7 F9000
G1 E5 F2400
;TYPE:External perimeter
;WIDTH:0.419999
G1 F1200
G1 X121.169 Y112.679 E.00066
G1 X121.28 Y112.293 E.01259
G1 X121.473 Y111.94 E.01261
G1 X121.777 Y111.606 E.01416
G1 X122.071 Y111.393 E.01138
;WIDTH:0.430135
G1 X122.574 Y111.196 E.01739
G1 X123.356 Y111.185 E.02518
;WIDTH:0.426458
G1 X123.928 Y111.393 E.01941
;WIDTH:0.419999
G1 X124.299 Y111.672 E.01455
G1 X124.627 Y112.103 E.01698
G1 X124.797 Y112.522 E.01418
G1 X124.858 Y112.92 E.01262
G1 X124.831 Y113.321 E.0126
G1 X124.72 Y113.707 E.01259
G1 X124.521 Y114.067 E.0129
G1 X124.148 Y114.46 E.01699
G1 X123.745 Y114.697 E.01466
;WIDTH:0.423682
G1 X123.223 Y114.828 E.01704
;WIDTH:0.429425
G1 X122.636 Y114.817 E.01887
G1 X122.073 Y114.608 E.0193
;WIDTH:0.419999
G1 X121.604 Y114.226 E.01897
G1 X121.348 Y113.853 E.01418
G1 X121.214 Y113.517 E.01134
G1 X121.142 Y113.08 E.01389
G1 X121.163 Y112.76 E.01005
G1 E-3.5 F3600
;WIPE_START
G1 F7200
G1 X121.167 Y112.7 E-.02856
G1 X121.169 Y112.679 E-.01002
G1 X121.28 Y112.293 E-.19078
G1 X121.473 Y111.94 E-.1911
G1 X121.777 Y111.606 E-.21453
G1 X122.071 Y111.393 E-.17245
G1 X122.574 Y111.196 E-.2566
G1 X123.356 Y111.185 E-.37149
G1 X123.484 Y111.231 E-.06447
;WIPE_END
G1 X109.854 Y112.899 F9000
G1 E5 F2400
G1 F1200
G1 X109.858 Y112.92 E.00067
G1 X109.831 Y113.321 E.0126
G1 X109.72 Y113.707 E.01259
G1 X109.521 Y114.067 E.0129
G1 X109.148 Y114.46 E.01699
G1 X108.745 Y114.697 E.01466
;WIDTH:0.423683
G1 X108.223 Y114.828 E.01704
;WIDTH:0.429424
G1 X107.636 Y114.817 E.01887
G1 X107.072 Y114.608 E.01933
;WIDTH:0.419999
G1 X106.604 Y114.226 E.01894
G1 X106.348 Y113.853 E.01418
G1 X106.203 Y113.478 E.01261
G1 X106.142 Y113.08 E.01262
G1 X106.169 Y112.679 E.0126
G1 X106.28 Y112.293 E.01259
G1 X106.473 Y111.94 E.01261
G1 X106.777 Y111.606 E.01416
G1 X107.071 Y111.393 E.01138
;WIDTH:0.430135
G1 X107.574 Y111.196 E.01739
;WIDTH:0.432274
G1 X108.356 Y111.183 E.02532
;WIDTH:0.429353
G1 X108.928 Y111.393 E.01958
;WIDTH:0.419999
G1 X109.299 Y111.672 E.01455
G1 X109.627 Y112.103 E.01698
G1 X109.797 Y112.522 E.01418
G1 X109.845 Y112.84 E.01008
G1 E-3.5 F3600
;WIPE_START
G1 F7200
G1 X109.854 Y112.899 E-.02835
G1 X109.858 Y112.92 E-.01015
G1 X109.831 Y113.321 E-.19091
G1 X109.72 Y113.707 E-.19078
G1 X109.521 Y114.067 E-.19539
G1 X109.148 Y114.46 E-.25737
G1 X108.745 Y114.697 E-.22207
G1 X108.223 Y114.828 E-.25564
G1 X107.909 Y114.822 E-.14934
;WIPE_END
G1 X125.159 Y111.557 F9000
G1 E5 F2400
;TYPE:Perimeter
G1 F1200
G1 X149.436 Y111.564 E.76119
G1 X149.436 Y119.436 E.24682
G1 X146.564 Y119.436 E.09005
G1 X146.564 Y115.379 E.1272
G1 X146.487 Y115.004 E.012
G1 X146.288 Y114.712 E.01108
G1 X145.996 Y114.513 E.01108
G1 X145.622 Y114.436 E.01197
G1 X125.176 Y114.436 E.64107
G1 X125.386 Y114.06 E.0135
G1 X125.558 Y113.523 E.01768
G1 X125.611 Y112.944 E.01823
G1 X125.541 Y112.4 E.0172
G1 X125.353 Y111.868 E.01769
G1 X125.191 Y111.608 E.00961
G1 X124.836 Y111.755 F9000
G1 F1200
G1 X124.599 Y111.443 E.01228
G1 X124.284 Y111.179 E.01289
G1 X149.813 Y111.187 E.80044
G1 X149.813 Y119.813 E.27046
G1 X146.187 Y119.813 E.11369
G1 X146.187 Y115.379 E.13902
G1 X146.141 Y115.154 E.0072
G1 X146.021 Y114.979 E.00665
G1 X145.846 Y114.859 E.00665
G1 X145.622 Y114.813 E.00717
G1 X124.3 Y114.816 E.66854
G1 X124.421 Y114.72 E.00484
G1 X124.794 Y114.327 E.01699
G1 X125.053 Y113.884 E.01609
G1 X125.195 Y113.422 E.01515
G1 X125.235 Y112.93 E.01548
G1 X125.136 Y112.343 E.01866
G1 X124.927 Y111.874 E.0161
G1 X124.872 Y111.803 E.00282
G1 E-3.5 F3600
;WIPE_START
G1 F7200
G1 X124.836 Y111.755 E-.0285
G1 X124.599 Y111.443 E-.18611
G1 X124.284 Y111.179 E-.19522
G1 X126.579 Y111.18 E-1.09017
;WIPE_END
G1 X105.822 Y111.564 F9000
G1 E5 F2400
G1 F1200
G1 X105.614 Y111.94 E.01347
G1 X105.442 Y112.477 E.01768
G1 X105.389 Y113.055 E.0182
G1 X105.459 Y113.6 E.01723
G1 X105.647 Y114.132 E.01769
G1 X105.827 Y114.436 E.01108
G1 X85.379 Y114.436 E.64113
G1 X85.004 Y114.513 E.012
G1 X84.712 Y114.712 E.01108
G1 X84.513 Y115.004 E.01108
G1 X84.436 Y115.379 E.012
G1 X84.436 Y119.436 E.1272
G1 X81.564 Y119.436 E.09005
G1 X81.564 Y111.564 E.24682
G1 X105.762 Y111.564 E.75871
G1 X106.155 Y111.749 F9000
G1 F1200
G1 X105.947 Y112.116 E.01323
G1 X105.805 Y112.578 E.01515
G1 X105.766 Y113.06 E.01516
G1 X105.831 Y113.539 E.01516
G1 X105.998 Y113.992 E.01514
G1 X106.258 Y114.4 E.01517
G1 X106.719 Y114.816 E.01947
G1 X85.297 Y114.813 E.67167
G1 X84.979 Y114.979 E.01125
G1 X84.859 Y115.154 E.00665
G1 X84.813 Y115.379 E.0072
G1 X84.813 Y119.813 E.13902
G1 X81.187 Y119.813 E.11369
G1 X81.187 Y111.187 E.27046
G1 X106.71 Y111.184 E.80025
G1 X106.542 Y111.311 E.0066
G1 X106.186 Y111.695 E.01642
G1 E-3.5 F3600
;WIPE_START
G1 F7200
G1 X106.155 Y111.749 E-.02958
G1 X105.947 Y112.116 E-.20038
G1 X105.805 Y112.578 E-.22958
G1 X105.766 Y113.06 E-.2297
G1 X105.831 Y113.539 E-.22961
G1 X105.998 Y113.992 E-.22933
G1 X106.258 Y114.4 E-.22981
G1 X106.449 Y114.572 E-.12201
;WIPE_END
G1 X110.165 Y111.564 F9000
G1 E5 F2400
G1 F1200
G1 X120.822 Y111.564 E.33414
G1 X120.614 Y111.94 E.01347
G1 X120.442 Y112.477 E.01768
G1 X120.389 Y113.055 E.0182
G1 X120.459 Y113.6 E.01723
G1 X120.647 Y114.132 E.01769
G1 X120.827 Y114.436 E.01108
G1 X110.176 Y114.436 E.33395
G1 X110.386 Y114.06 E.0135
G1 X110.558 Y113.523 E.01768
G1 X110.611 Y112.945 E.0182
G1 X110.541 Y112.4 E.01723
G1 X110.353 Y111.868 E.01769
G1 X110.196 Y111.615 E.00934
G1 E-3.5 F3600
;WIPE_START
G1 F7200
G1 X110.165 Y111.564 E-.02835
G1 X113.263 Y111.564 E-1.47165
;WIPE_END
G1 X120.781 Y112.88 F9000
G1 E5 F2400
G1 F1200
G1 X120.766 Y113.06 E.00566
G1 X120.831 Y113.539 E.01516
G1 X120.998 Y113.992 E.01514
G1 X121.258 Y114.4 E.01517
G1 X121.719 Y114.816 E.01947
G1 X109.3 Y114.816 E.38939
G1 X109.421 Y114.72 E.00484
G1 X109.794 Y114.327 E.01699
G1 X110.053 Y113.884 E.01609
G1 X110.195 Y113.422 E.01515
G1 X110.234 Y112.931 E.01544
G1 X110.136 Y112.343 E.01869
G1 X109.927 Y111.874 E.0161
G1 X109.599 Y111.443 E.01698
G1 X109.29 Y111.184 E.01264
G1 X121.71 Y111.184 E.38942
G1 X121.542 Y111.311 E.0066
G1 X121.186 Y111.695 E.01642
G1 X120.947 Y112.116 E.01518
G1 X120.805 Y112.578 E.01515
G1 X120.786 Y112.82 E.00761
G1 E-3.5 F3600
;WIPE_START
G1 F7200
G1 X120.781 Y112.88 E-.0286
G1 X120.766 Y113.06 E-.0858
G1 X120.831 Y113.539 E-.22961
G1 X120.998 Y113.992 E-.22933
G1 X121.258 Y114.4 E-.22981
G1 X121.719 Y114.816 E-.29495
G1 X120.873 Y114.816 E-.4019
;WIPE_END
G1 X145.762 Y115.263 F9000
G1 E5 F2400
;TYPE:External perimeter
G1 F1200
G1 X145.755 Y115.245 E.00061
G1 X145.622 Y115.19 E.00451
G1 X123.811 Y115.201 E.68387
;WIDTH:0.425544
G1 X123 Y115.211 E.0258
;WIDTH:0.426394
G1 X121.503 Y115.19 E.04774
;WIDTH:0.419999
G1 X108.811 Y115.201 E.39795
;WIDTH:0.425545
G1 X108 Y115.211 E.0258
;WIDTH:0.426393
G1 X106.503 Y115.19 E.04774
;WIDTH:0.419999
G1 X85.379 Y115.19 E.66233
G1 X85.245 Y115.245 E.00454
G1 X85.19 Y115.379 E.00454
G1 X85.19 Y120.19 E.15085
G1 X80.81 Y120.19 E.13733
G1 X80.81 Y110.81 E.2941
G1 X106.958 Y110.803 E.81985
;WIDTH:0.430135
G1 X107.498 Y110.799 E.01739
;WIDTH:0.432148
G1 X108.501 Y110.797 E.03246
;WIDTH:0.426142
G1 X109.497 Y110.81 E.03174
;WIDTH:0.419999
G1 X121.958 Y110.803 E.39071
;WIDTH:0.430135
G1 X122.498 Y110.799 E.01739
;WIDTH:0.43212
G1 X122.998 Y110.793 E.01618
;WIDTH:0.43518
G1 X124.037 Y110.802 E.03389
;WIDTH:0.419999
G1 X150.19 Y110.81 E.82001
G1 X150.19 Y120.19 E.2941
G1 X145.81 Y120.19 E.13733
G1 X145.81 Y115.379 E.15085
G1 X145.785 Y115.318 E.00207
G1 E-3.5 F3600
;WIPE_START
G1 F7200
G1 X145.762 Y115.263 E-.02832
G1 X145.755 Y115.245 E-.00917
G1 X145.622 Y115.19 E-.06836
G1 X142.687 Y115.191 E-1.39415
;WIPE_END
G1 X149.315 Y112.462 F9000
G1 E5 F2400
;TYPE:Solid infill
;WIDTH:0.427284
G1 F1200
G1 X148.707 Y111.854 E.02748
G1 X148.163 Y111.854 E.01739
G1 X149.146 Y112.836 E.04441
G1 X149.146 Y113.38 E.01739
G1 X147.62 Y111.854 E.06897
G1 X147.076 Y111.854 E.01739
G1 X149.146 Y113.923 E.09354
G1 X149.146 Y114.467 E.01739
G1 X146.532 Y111.853 E.11815
G1 X145.988 Y111.853 E.01739
G1 X149.146 Y115.01 E.14271
G1 X149.146 Y115.554 E.01739
G1 X145.445 Y111.853 E.16728
G1 X144.901 Y111.853 E.01739
G1 X149.146 Y116.098 E.19187
G1 X149.146 Y116.641 E.01735
G1 X144.357 Y111.853 E.21643
G1 X143.813 Y111.853 E.01739
G1 X149.146 Y117.185 E.24102
G1 X149.146 Y117.728 E.01735
G1 X146.854 Y115.437 E.10357
G1 X146.854 Y115.981 E.01739
G1 X149.146 Y118.272 E.10357
G1 X149.146 Y118.815 E.01735
G1 X146.854 Y116.524 E.10357
G1 X146.854 Y117.068 E.01739
G1 X148.932 Y119.146 E.09392
G1 X148.388 Y119.146 E.01739
G1 X146.854 Y117.612 E.06933
G1 X146.854 Y118.155 E.01735
G1 X147.845 Y119.146 E.04479
G1 X147.301 Y119.146 E.01739
G1 X146.685 Y118.529 E.02786
G1 E-3.5 F3600
;WIPE_START
G1 F7200
G1 X147.301 Y119.146 E-.41413
G1 X147.845 Y119.146 E-.2584
G1 X146.854 Y118.155 E-.66571
G1 X146.854 Y117.814 E-.16176
;WIPE_END
G1 X145.763 Y114.346 F9000
G1 E5 F2400
G1 F1200
G1 X143.27 Y111.852 E.1127
G1 X142.726 Y111.852 E.01739
G1 X145.019 Y114.146 E.10366
G1 X144.476 Y114.146 E.01735
G1 X142.182 Y111.852 E.10368
G1 X141.638 Y111.852 E.01739
G1 X143.932 Y114.146 E.10368
G1 X143.388 Y114.146 E.01739
G1 X141.095 Y111.852 E.10366
G1 X140.551 Y111.852 E.01739
G1 X142.845 Y114.146 E.10368
G1 X142.301 Y114.146 E.01739
G1 X140.007 Y111.851 E.10371
G1 X139.464 Y111.851 E.01735
G1 X141.758 Y114.146 E.10371
G1 X141.214 Y114.146 E.01739
G1 X138.92 Y111.851 E.10371
G1 X138.376 Y111.851 E.01739
G1 X140.671 Y114.146 E.10373
G1 X140.127 Y114.146 E.01739
G1 X137.832 Y111.851 E.10373
G1 X137.289 Y111.851 E.01735
G1 X139.583 Y114.146 E.10371
G1 X139.04 Y114.146 E.01735
G1 X136.745 Y111.851 E.10373
G1 X136.201 Y111.85 E.01739
G1 X138.496 Y114.146 E.10375
G1 X137.953 Y114.146 E.01735
G1 X135.657 Y111.85 E.10378
G1 X135.114 Y111.85 E.01735
G1 X137.409 Y114.146 E.10375
G1 X136.866 Y114.146 E.01735
G1 X134.57 Y111.85 E.10378
G1 X134.026 Y111.85 E.01739
G1 X136.322 Y114.146 E.10378
G1 X135.778 Y114.146 E.01739
G1 X133.483 Y111.85 E.10375
G1 X132.939 Y111.849 E.01739
G1 X135.235 Y114.146 E.1038
G1 X134.691 Y114.146 E.01739
G1 X132.395 Y111.849 E.1038
G1 X131.851 Y111.849 E.01739
G1 X134.148 Y114.146 E.10382
G1 X133.604 Y114.146 E.01739
G1 X131.308 Y111.849 E.1038
G1 X130.764 Y111.849 E.01739
G1 X133.061 Y114.146 E.10382
G1 X132.517 Y114.146 E.01739
G1 X130.22 Y111.849 E.10382
G1 X129.676 Y111.848 E.01739
G1 X131.973 Y114.146 E.10384
G1 X131.43 Y114.146 E.01735
G1 X129.133 Y111.848 E.10384
G1 X128.589 Y111.848 E.01739
G1 X130.886 Y114.146 E.10384
G1 X130.343 Y114.146 E.01735
G1 X128.045 Y111.848 E.10387
G1 X127.501 Y111.848 E.01739
G1 X129.799 Y114.146 E.10387
G1 X129.256 Y114.146 E.01735
G1 X126.958 Y111.848 E.10387
G1 X126.414 Y111.848 E.01739
G1 X128.712 Y114.146 E.10387
G1 X128.168 Y114.146 E.01739
G1 X125.87 Y111.847 E.10389
G1 X125.651 Y111.847 E.007
G1 X125.758 Y112.101 E.00881
G1 X125.827 Y112.347 E.00817
G1 X127.625 Y114.146 E.08129
G1 X127.081 Y114.146 E.01739
G1 X125.901 Y112.965 E.05336
G1 X125.86 Y113.468 E.01613
G1 X126.538 Y114.146 E.03064
G1 X125.994 Y114.146 E.01739
G1 X125.615 Y113.767 E.01713
G1 E-3.5 F3600
;WIPE_START
G1 F7200
G1 X125.994 Y114.146 E-.25459
G1 X126.538 Y114.146 E-.2584
G1 X125.86 Y113.468 E-.45545
G1 X125.901 Y112.965 E-.23972
G1 X126.335 Y113.399 E-.29184
;WIPE_END
G1 X120.386 Y112.228 F9000
G1 E5 F2400
;WIDTH:0.423976
G1 F1200
G1 X120.013 Y111.854 E.01674
G1 X119.474 Y111.854 E.01708
G1 X120.142 Y112.522 E.02993
G1 X120.1 Y113.019 E.0158
G1 X118.935 Y111.854 E.0522
G1 X118.396 Y111.854 E.01708
G1 X120.169 Y113.628 E.07947
G1 X120.242 Y113.899 E.00889
G1 X120.344 Y114.146 E.00847
G1 X120.148 Y114.146 E.00621
G1 X117.857 Y111.854 E.10268
G1 X117.318 Y111.854 E.01708
G1 X119.609 Y114.146 E.10268
G1 X119.071 Y114.146 E.01705
G1 X116.779 Y111.854 E.1027
G1 X116.24 Y111.854 E.01708
G1 X118.532 Y114.146 E.1027
G1 X117.993 Y114.146 E.01708
G1 X115.702 Y111.854 E.10268
G1 X115.163 Y111.854 E.01708
G1 X117.454 Y114.146 E.10268
G1 X116.915 Y114.146 E.01708
G1 X114.624 Y111.854 E.10268
G1 X114.085 Y111.854 E.01708
G1 X116.376 Y114.146 E.10268
G1 X115.837 Y114.146 E.01708
G1 X113.546 Y111.854 E.10268
G1 X113.007 Y111.854 E.01708
G1 X115.298 Y114.146 E.10268
G1 X114.759 Y114.146 E.01708
G1 X112.468 Y111.854 E.10268
G1 X111.929 Y111.854 E.01708
G1 X114.22 Y114.146 E.10268
G1 X113.682 Y114.146 E.01705
G1 X111.39 Y111.854 E.1027
G1 X110.852 Y111.854 E.01705
G1 X113.143 Y114.146 E.10268
G1 X112.604 Y114.146 E.01708
G1 X110.831 Y112.373 E.07945
G1 X110.887 Y112.715 E.01098
G1 X110.9 Y112.981 E.00844
G1 X112.065 Y114.146 E.0522
G1 X111.526 Y114.146 E.01708
G1 X110.858 Y113.478 E.02993
G1 X110.752 Y113.91 E.01409
G1 X111.157 Y114.315 E.01815
G1 E-3.5 F3600
;WIPE_START
G1 F7200
G1 X110.752 Y113.91 E-.27206
G1 X110.858 Y113.478 E-.21129
G1 X111.526 Y114.146 E-.44873
G1 X112.065 Y114.146 E-.25603
G1 X111.601 Y113.682 E-.31189
;WIPE_END
G1 X104.83 Y111.685 F9000
G1 E5 F2400
;WIDTH:0.421845
G1 F1200
G1 X105.245 Y112.1 E.01849
G1 X105.14 Y112.531 E.01398
G1 X104.464 Y111.854 E.03014
G1 X103.928 Y111.854 E.01689
G1 X105.099 Y113.026 E.0522
G1 X105.113 Y113.285 E.00817
G1 X105.17 Y113.633 E.01111
G1 X103.392 Y111.854 E.07925
G1 X102.856 Y111.854 E.01689
G1 X105.147 Y114.146 E.10211
G1 X104.611 Y114.146 E.01689
G1 X102.32 Y111.854 E.10211
G1 X101.784 Y111.854 E.01689
G1 X104.075 Y114.146 E.10211
G1 X103.539 Y114.146 E.01689
G1 X101.248 Y111.854 E.10211
G1 X100.712 Y111.854 E.01689
G1 X103.004 Y114.146 E.10213
G1 X102.468 Y114.146 E.01689
G1 X100.177 Y111.854 E.10211
G1 X99.641 Y111.854 E.01689
G1 X101.932 Y114.146 E.10211
G1 X101.396 Y114.146 E.01689
G1 X99.105 Y111.854 E.10211
G1 X98.569 Y111.854 E.01689
G1 X100.86 Y114.146 E.10211
G1 X100.324 Y114.146 E.01689
G1 X98.033 Y111.854 E.10211
G1 X97.497 Y111.854 E.01689
G1 X99.788 Y114.146 E.10211
G1 X99.252 Y114.146 E.01689
G1 X96.961 Y111.854 E.10211
G1 X96.425 Y111.854 E.01689
G1 X98.717 Y114.146 E.10213
G1 X98.181 Y114.146 E.01689
G1 X95.89 Y111.854 E.10211
G1 X95.354 Y111.854 E.01689
